X:1
T:Title
%%score 1 2 3 4
L:1/8
M:2/2
K:F
V:1 treble nm="Part_1"
V:2 treble-8 nm="Part_2"
V:3 treble-8 nm="Part_3"
V:4 bass nm="Part_4"
V:1
 G6 FE | D6 E2 | F6 ED | E8 | D8 | z4 F4 | G6 F2 | F4 G4 | A4 B4 | c3 B A2 G2 | F4 G2 A2- | %11
 AG G4 ^F2 | G4 z4 | G4 A4- | A4 F4 | G4 c4 | d4 B4- | B4 A4 | B4 z4 | G4 A4 | B8 | A4 d4- | %22
 d4 c4 | d2 B3 A A2- | A2 GF G4 | A4 B2 A2- | A2 GF E4 | D4 z4 | B4 A4 | G4 c4 | B2 A3 G G2- | %31
 G2 F2 G4 | z8 | z8 | z8 |[M:3/2] z12 | G4 G4 A4 | B8 A4 | d8 c4 | d4 B4 c4 | F4 G4 A4- | A4 G8 | %42
 F8 E4 | F8 G4 | A6 G2 B4- | B2 A2 c6 B2 | B8 A4 | B8 z4 | G8 A4 | B8 A4 | G4 D4 F4- | F4 E8 | %52
 D8 z4 | B8 A4 | G4 c8 | B4 A8 | G4 z4 F4 | G4 B4 A4 | B4 A6 G2 | G8 ^F4 | G12 |] %61
V:2
 z8 | z8 | z8 | G4 A4 | B8 | A4 d4 | c8 | d8- | d8 | G8 | A4 B2 A2 | F2 G2 A4 | G3 A B3 c | %13
 d3 e f4 | c4 d4 | e8 | d4 f4- | f4 f4 | d4 B4 | c6 BA | G4 g4 | f4 d2 g2- | g2 f2 e4 | d4 f4 | %24
 d4 _e4 | d8 | z4 A4 | A6 B2- | B4 c4 | B2 d4 c2 | d2 e3 d d2- | d2 c2 d4 | c4 B4 | G4 z4 | z8 | %35
[M:3/2] G4 G4 A4 | B8 A4 | d8 c4 | d2 e2 f2 g2 e4 | d8 c4 | d4 B4 c4 | F4 G6 F2 | A12 | B8 f4- | %44
 f4 f4 d4 | e4 f4 d4- | d2 e2 f8 | d8 c4 | d6 e2 f4 | g8 f4 | d6 c2 d4 | A6 G2 A4 | F8 f4 | %53
 g8 f2 e2 | d4 e4 f4 | d4 c4 A4 | B2 c2 d8 | d8 d4 | d8 d4 | e4 d8 | d12 |] %61
V:3
 z8 | z8 | z8 | z8 | z8 | z8 | G4 A4 | B8 | A4 d4 | c8 | d8 | d4 z4 | d6 d2 | d4 c4- | c4 B4- | %15
 B4 A4 | B4 d4 | c8 | B8 | z8 | z8 | z8 | z8 | G4 A4 | B8 | A4 d4 | c8 | d8 | d4 z4 | z8 | z8 | %31
 z4 B4 | A4 G4 | c4 B2 A2- | A2 G4 ^F2 |[M:3/2] G8 z4 | z12 | z12 | z12 | G4 G4 A4 | B8 A4 | %41
 d4 c6 B2 | d8 z4 | d8 d4 | c8 B4- | B4 A4 B4 | d4 c8 | B8 z4 | z12 | G8 A4 | B8 A4 | d8 ^c4 | %52
 d8 d4 | z12 | B8 A4 | G4 c8 | B4 A6 G2 | G8 F4 | G4 A4 B4 | c4 A8 | G12 |] %61
V:4
 G,,4 A,,4 | B,,8 | A,,4 D,4 | C,8 | D,4 G,4 | F,4 D,4 | _E,6 D,C, | B,,4 G,,4 | D,8 | E,8 | %10
 D,4 G,2 F,2- | F,2 E,2 D,4 | G,6 A,2 | B,4 F,4- | F,4 D,4 | C,8 | B,,8 | F,8 | G,8 | C,8 | %20
 G,6 F,E, | D,4 G,,4 | G,4 A,4 | B,4 F,4 | G,8 | D,8 | A,8 | D,6 B,,2- | B,,4 F,4 | G,2 B,2 A,4 | %30
 G,2 C4 _B,2 | A,4 G,2 G,2- | G,2 F,2 G,2 E,2- | E,2 C,2 D,4 | C,2 B,,2 A,,4 |[M:3/2] G,,8 z4 | %36
 z12 | z12 | G,,4 G,,4 A,,4 | B,,8 A,,4 | D,4 G,4 F,4 | D,4 _E,8 | D,12 | B,,8 B,,4 | F,8 G,4- | %45
 G,4 F,4 G,4 | B,4 F,8 | G,4 G,4 A,4 | B,8 A,4 | G,4 E,4 F,4 | G,8 D,4- | D,4 A,,8 | B,,12 | %53
 G,,8 D,4 | G,8 F,4 | G,4 A,4 F,4 | G,4 D,8 | G,,8 D,4 | G,4 F,4 G,4 | C,4 D,8 | G,,12 |] %61

